X: 6901
T: Chausey
R: reel
M: 4/4
K: Aminor
AAA (3ABc BAE|FcEc F3c|G3B dcBA|^G^GAA BBBE|
A3 B cB (3ABc|FcEc F3c|G3B edcd|cB^GF E^GB^G:|
AAed AeAc|eAce eGed|GGdc GdGB|dGBd ecBc|
AAed AeAc|eAce edcB|dedc edcB|dcBA E^GB^G:|

